assets/Bowl with spoon/Flat/bowl_with_spoon_flat.svg

<svg width="32" height="32" viewBox="0 0 32 32" fill="none" xmlns="http://www.w3.org/2000/svg">
<path d="M18.5 29.0411H13.48C7.69 29.0411 3 24.3511 3 18.5611V13.6611H28.98V18.5611C28.98 24.3511 24.29 29.0411 18.5 29.0411Z" fill="#00A6ED"/>
<path d="M21.55 6.2312H10.43C6.33 6.2312 3 9.5612 3 13.6612C3 17.7612 6.33 21.0912 10.43 21.0912H21.55C25.65 21.0912 28.98 17.7612 28.98 13.6612C28.98 9.5612 25.66 6.2312 21.55 6.2312Z" fill="#26EAFC"/>
<path d="M21.8646 7.87122C24.9643 7.87122 27.4907 10.4712 27.4907 13.6612C27.4907 16.8512 24.9643 19.4512 21.8646 19.4512H19.3555L14.8457 17.5938L10.3359 19.4512H10.2238C7.12406 19.4512 4.59766 16.8512 4.59766 13.6612C4.59766 10.4712 7.12406 7.87122 10.2238 7.87122H21.8646Z" fill="#0074BA"/>
<path d="M26.3934 3.04938L19.2316 15.2441C18.8583 15.8798 18.8065 16.6518 19.0721 17.3478C19.3121 17.9795 19.4149 18.6979 19.3746 19.4513H10.3135C10.465 19.0323 10.6596 18.6156 10.8982 18.2093C11.9461 16.4249 13.5785 15.2839 15.1655 15.046C15.9027 14.939 16.5484 14.5233 16.9217 13.8876L24.0999 1.66494C24.4797 1.01813 25.3251 0.817188 25.9656 1.2233C26.5835 1.61617 26.7569 2.43044 26.3934 3.04938Z" fill="#D3D3D3"/>
<path d="M11.4805 19.4513H18.2053C18.2048 18.2723 17.7293 17.2342 16.8223 16.7016C15.2666 15.7879 13.0304 16.7074 11.8277 18.7553C11.6935 18.9838 11.5779 19.2166 11.4805 19.4513Z" fill="#9B9B9B"/>
</svg>

<svg xmlns="http://www.w3.org/2000/svg" width="32" height="32" fill="none"><path fill="#00A6ED" d="M18.5 29.041h-5.02C7.69 29.041 3 24.351 3 18.561v-4.9h25.98v4.9c0 5.79-4.69 10.48-10.48 10.48Z"/><path fill="#26EAFC" d="M21.55 6.231H10.43c-4.1 0-7.43 3.33-7.43 7.43s3.33 7.43 7.43 7.43h11.12c4.1 0 7.43-3.33 7.43-7.43s-3.32-7.43-7.43-7.43Z"/><path fill="#0074BA" d="M21.865 7.871c3.1 0 5.626 2.6 5.626 5.79s-2.527 5.79-5.626 5.79h-2.51l-4.51-1.857-4.51 1.857h-.111c-3.1 0-5.626-2.6-5.626-5.79s2.526-5.79 5.626-5.79h11.64Z"/><path fill="#D3D3D3" d="m26.393 3.05-7.161 12.194a2.433 2.433 0 0 0-.16 2.104c.24.632.343 1.35.303 2.103h-9.062c.152-.419.347-.835.585-1.242 1.048-1.784 2.68-2.925 4.268-3.163a2.42 2.42 0 0 0 1.756-1.158L24.1 1.665a1.333 1.333 0 0 1 1.866-.442c.617.393.79 1.207.427 1.826Z"/><path fill="#9B9B9B" d="M11.48 19.451h6.725c0-1.179-.476-2.217-1.383-2.75-1.555-.913-3.792.006-4.994 2.054-.134.229-.25.462-.348.696Z"/></svg>
